X:1
T:Title
%%score { 1 | 2 }
L:1/8
M:2/2
K:F
V:1 treble nm="Grand Piano"
V:2 bass 
V:1
 z4[Q:1/4=116] F4 | A2 A2 _A2 =A2 | F4 F4 | [EG]4 E4 |[M:5/4] F6 F4 |[M:4/4] A2 c2 B2 [D^FA]2 | %6
 [DGB]4 [CEc]4 | [CFA]4 [B,EG]4 |[M:3/4] [A,F]6 |] %9
V:2
 z4 [F,A,C]4 | [F,CF]2 [F,CF]2 [F,=B,F]2 [F,CF]2 | [F,A,C]4 [F,A,C]4 | [C,B,]4 [C,G,C]4 | %4
[M:5/4] [F,A,C]6 [F,A,C]4 |[M:4/4][K:treble] [F,CF]2 [A,CF]2 [G,DG]2[K:bass] D,2 | G,4 C,4 | %7
 F,4 C,4 |[M:3/4] F,6 |] %9

